TCanvas/fit1_5.svg

<svg xmlns="http://www.w3.org/2000/svg" viewBox="0 0 1200 800" preserveAspectRatio="none" width="1200" height="800">
 <path d="M0,0H1200V800H0Z" style="fill: white;"></path>
 <g>
  <g transform="translate(120,80)">
   <path d="M0,0H960V640H0Z" style="fill: white; stroke: black; stroke-width: 1;"></path>
   <svg x="0" y="0" overflow="hidden" width="960" height="640" viewBox="0 0 960 640">
    <g>
     <path d="M0,313h10v-176h9v203h10v-67h9v-68h10v108h10v-176h9v203h10v-162h9v81h10v149h10v-162h9v13h10v54h9v14h10v-81h10v135h9v-122h10v135h9v-135h10v81h10v-13h9v67h10v-54h9v54h10v-67h19v-41h10v81h9v82h10v-258h10v230h9v-13h10v-41h9v-81h10v14h10v54h9v81h10v-122h9v14h10v122h10v-109h9v68h10v-68h9v41h10v-54h10v149h9v-122h10v81h9v41h10v-41h10v-27h9v-81h10v13h9v-135h10v41h10v-122h9v-54h10v-41h9v217h10v-163h10v68h9v54h10v14h9v94h10v14h10v122h9v-95h10v122h9v67h10v-108h10v68h9v-27h10v13h9v27h10v27h10v27h9v27h10v-94h19v108h10v-122h9v14h10v13h9v14h10v40h10v-40h19v-14h9v14h10v27h10v-14h9v27h19v-54h10v41h19v40h10v-67h9v27h10" style="stroke-linejoin: miter; stroke: #00009a; stroke-width: 1; fill: none;"></path>
    </g>
    <g>
     <path d="M0,266l5,2l5,1l5,2l5,2l4,1l5,2l5,2l5,1l5,2l4,2l5,1l5,2l5,1l5,2l4,2l5,1l5,2l5,2l5,1l4,2l5,1l5,2l5,2l5,1l4,2l5,2l5,1l5,2l5,1l4,2l5,2l5,1l5,2l5,2l4,1l5,2l5,2l5,1l5,2l4,1l5,2l5,2l5,1l5,2l4,2l5,1l5,2l5,1l5,2l4,2l5,1l5,2l5,2l5,1l4,2l5,1l5,2l5,2l5,1l4,2l5,2l5,1l5,2l5,1l4,2l5,2l5,1l5,2l5,2l4,1l5,2l5,2l5,1l5,2l4,1l5,2l5,2l5,1l5,2l4,2l5,1l5,2l5,1l5,2l4,2l5,1l5,2l5,2l5,1l4,2l5,1l5,2l5,2l5,1l4,2l5,2l5,1l5,2l5,2l4,1" style="fill: none; stroke: red; stroke-width: 2;"></path>
    </g>
    <g>
     <path d="M672,494l3,1l3,1l3,1l3,1l3,1l3,1l3,1l2,1l3,1l3,1l3,1l3,1l3,1l3,1l3,1l3,1l2,1l3,1l3,1l3,1l3,1l3,1l3,1l3,1l2,1l3,1l3,1l3,1l3,1l3,1l3,1l3,1l2,1l3,1l3,1h3l3,1l3,1l3,1l3,1l3,1l2,1l3,1l3,1l3,1l3,1l3,1l3,1l3,1l2,1l3,1l3,1l3,1l3,1l3,1l3,1l3,1l2,1l3,1l3,1l3,1l3,1l3,1l3,1l3,1l3,1l2,1l3,1l3,1l3,1l3,1l3,1l3,1l3,1l2,1l3,1l3,1l3,1l3,1h3l3,1l3,1l2,1l3,1l3,1l3,1l3,1l3,1l3,1l3,1l3,1l2,1l3,1l3,1l3,1l3,1l3,1l3,1l3,1l2,1" style="fill: none; stroke: red; stroke-width: 2;"></path>
    </g>
   </svg>
   <g>
    <g transform="translate(0,640)">
     <path d="M0,0h960M0,-24V0M19,-12V0M38,-12V0M58,-12V0M77,-12V0M96,-24V0M115,-12V0M134,-12V0M154,-12V0M173,-12V0M192,-24V0M211,-12V0M230,-12V0M250,-12V0M269,-12V0M288,-24V0M307,-12V0M326,-12V0M346,-12V0M365,-12V0M384,-24V0M403,-12V0M422,-12V0M442,-12V0M461,-12V0M480,-24V0M499,-12V0M518,-12V0M538,-12V0M557,-12V0M576,-24V0M595,-12V0M614,-12V0M634,-12V0M653,-12V0M672,-24V0M691,-12V0M710,-12V0M730,-12V0M749,-12V0M768,-24V0M787,-12V0M806,-12V0M826,-12V0M845,-12V0M864,-24V0M883,-12V0M902,-12V0M922,-12V0M941,-12V0M960,-24V0" style="stroke: black; stroke-width: 1;"></path>
     <g font-family="Arial" font-size="28" space="preserve" fill="black" text-anchor="middle">
      <text dy=".8em" transform="translate(0,1)">
       0
      </text>
      <text dy=".8em" transform="translate(96,1)">
       0.5
      </text>
      <text dy=".8em" transform="translate(192,1)">
       1
      </text>
      <text dy=".8em" transform="translate(288,1)">
       1.5
      </text>
      <text dy=".8em" transform="translate(384,1)">
       2
      </text>
      <text dy=".8em" transform="translate(480,1)">
       2.5
      </text>
      <text dy=".8em" transform="translate(576,1)">
       3
      </text>
      <text dy=".8em" transform="translate(672,1)">
       3.5
      </text>
      <text dy=".8em" transform="translate(768,1)">
       4
      </text>
      <text dy=".8em" transform="translate(864,1)">
       4.5
      </text>
      <text dy=".8em" transform="translate(960,1)">
       5
      </text>
     </g>
    </g>
    <g>
     <path d="M0,0v640M18,638H0M18,624H0M18,611H0M18,597H0M36,584H0M18,570H0M18,557H0M18,543H0M18,530H0M36,516H0M18,503H0M18,489H0M18,476H0M18,462H0M36,449H0M18,435H0M18,421H0M18,408H0M18,394H0M36,381H0M18,367H0M18,354H0M18,340H0M18,327H0M36,313H0M18,300H0M18,286H0M18,273H0M18,259H0M36,246H0M18,232H0M18,219H0M18,205H0M18,191H0M36,178H0M18,164H0M18,151H0M18,137H0M18,124H0M36,110H0M18,97H0M18,83H0M18,70H0M18,56H0M36,43H0M18,29H0M18,16H0M18,2H0" style="stroke: black; stroke-width: 1;"></path>
     <g font-family="Arial" font-size="28" space="preserve" fill="black" text-anchor="end">
      <text dy=".4em" transform="translate(-4,584)">
       5
      </text>
      <text dy=".4em" transform="translate(-4,516)">
       10
      </text>
      <text dy=".4em" transform="translate(-4,449)">
       15
      </text>
      <text dy=".4em" transform="translate(-4,381)">
       20
      </text>
      <text dy=".4em" transform="translate(-4,313)">
       25
      </text>
      <text dy=".4em" transform="translate(-4,246)">
       30
      </text>
      <text dy=".4em" transform="translate(-4,178)">
       35
      </text>
      <text dy=".4em" transform="translate(-4,110)">
       40
      </text>
      <text dy=".4em" transform="translate(-4,43)">
       45
      </text>
     </g>
    </g>
   </g>
  </g>
  <g transform="translate(120,4)" font-family="Arial" font-size="40" space="preserve">
   <text fill="black" text-anchor="middle" dy=".8em" transform="translate(480)">
    background + signal
   </text>
  </g>
  <g transform="translate(936,52)" font-family="Arial" font-size="25" space="preserve" fill="black">
   <path d="M0,0H240V128H0Z" style="fill: white; stroke: black; stroke-width: 1;"></path>
   <text text-anchor="middle" dy=".4em" transform="translate(120,16)">
    h
   </text>
   <text text-anchor="start" dy=".4em" transform="translate(12,48)">
    Entries
   </text>
   <text text-anchor="end" dy=".4em" transform="translate(228,48)">
    2000
   </text>
   <text text-anchor="start" dy=".4em" transform="translate(12,80)">
    Mean
   </text>
   <text text-anchor="end" dy=".4em" transform="translate(228,80)">
    2.046
   </text>
   <text text-anchor="start" dy=".4em" transform="translate(12,112)">
    Std Dev
   </text>
   <text text-anchor="end" dy=".4em" transform="translate(228,112)">
    1.288
   </text>
   <path d="M0,32h240" style="stroke: black; stroke-width: 1;"></path>
  </g>
 </g>
</svg>

<svg xmlns="http://www.w3.org/2000/svg" viewBox="0 0 1200 800" preserveAspectRatio="none" width="1200" height="800">
 <path d="M0,0H1200V800H0Z" style="fill: white;"></path>
 <g>
  <g transform="translate(120,80)">
   <path d="M0,0H960V640H0Z" style="fill: white; stroke: black; stroke-width: 1;"></path>
   <svg x="0" y="0" overflow="hidden" width="960" height="640" viewBox="0 0 960 640">
    <g>
     <path d="M0,313h10v-176h9v203h10v-67h9v-68h10v108h10v-176h9v203h10v-162h9v81h10v149h10v-162h9v13h10v54h9v14h10v-81h10v135h9v-122h10v135h9v-135h10v81h10v-13h9v67h10v-54h9v54h10v-67h19v-41h10v81h9v82h10v-258h10v230h9v-13h10v-41h9v-81h10v14h10v54h9v81h10v-122h9v14h10v122h10v-109h9v68h10v-68h9v41h10v-54h10v149h9v-122h10v81h9v41h10v-41h10v-27h9v-81h10v13h9v-135h10v41h10v-122h9v-54h10v-41h9v217h10v-163h10v68h9v54h10v14h9v94h10v14h10v122h9v-95h10v122h9v67h10v-108h10v68h9v-27h10v13h9v27h10v27h10v27h9v27h10v-94h19v108h10v-122h9v14h10v13h9v14h10v40h10v-40h19v-14h9v14h10v27h10v-14h9v27h19v-54h10v41h19v40h10v-67h9v27h10" style="stroke-linejoin: miter; stroke: #00009a; stroke-width: 1; fill: none;"></path>
    </g>
    <g>
     <path d="M0,266L5,268L10,269L15,271L20,273L24,274L29,276L34,278L39,279L44,281L48,283L53,284L58,286L63,287L68,289L72,291L77,292L82,294L87,296L92,297L96,299L101,300L106,302L111,304L116,305L120,307L125,309L130,310L135,312L140,313L144,315L149,317L154,318L159,320L164,322L168,323L173,325L178,327L183,328L188,330L192,331L197,333L202,335L207,336L212,338L216,340L221,341L226,343L231,344L236,346L240,348L245,349L250,351L255,353L260,354L264,356L269,357L274,359L279,361L284,362L288,364L293,366L298,367L303,369L308,370L312,372L317,374L322,375L327,377L332,379L336,380L341,382L346,384L351,385L356,387L360,388L365,390L370,392L375,393L380,395L384,397L389,398L394,400L399,401L404,403L408,405L413,406L418,408L423,410L428,411L432,413L437,414L442,416L447,418L452,419L456,421L461,423L466,424L471,426L476,428L480,429" style="fill: none; stroke: red; stroke-width: 2;"></path>
    </g>
    <g>
     <path d="M672,494L675,495L678,496L681,497L684,498L687,499L690,500L693,501L695,502L698,503L701,504L704,505L707,506L710,507L713,508L716,509L719,510L721,511L724,512L727,513L730,514L733,515L736,516L739,517L742,518L744,519L747,520L750,521L753,522L756,523L759,524L762,525L765,526L767,527L770,528L773,529L776,529L779,530L782,531L785,532L788,533L791,534L793,535L796,536L799,537L802,538L805,539L808,540L811,541L814,542L816,543L819,544L822,545L825,546L828,547L831,548L834,549L837,550L839,551L842,552L845,553L848,554L851,555L854,556L857,557L860,558L863,559L865,560L868,561L871,562L874,563L877,564L880,565L883,566L886,567L888,568L891,569L894,570L897,571L900,572L903,572L906,573L909,574L911,575L914,576L917,577L920,578L923,579L926,580L929,581L932,582L935,583L937,584L940,585L943,586L946,587L949,588L952,589L955,590L958,591L960,592" style="fill: none; stroke: red; stroke-width: 2;"></path>
    </g>
   </svg>
   <g>
    <g transform="translate(0,640)">
     <path d="M0,0h960M0,-24V0M19,-12V0M38,-12V0M58,-12V0M77,-12V0M96,-24V0M115,-12V0M134,-12V0M154,-12V0M173,-12V0M192,-24V0M211,-12V0M230,-12V0M250,-12V0M269,-12V0M288,-24V0M307,-12V0M326,-12V0M346,-12V0M365,-12V0M384,-24V0M403,-12V0M422,-12V0M442,-12V0M461,-12V0M480,-24V0M499,-12V0M518,-12V0M538,-12V0M557,-12V0M576,-24V0M595,-12V0M614,-12V0M634,-12V0M653,-12V0M672,-24V0M691,-12V0M710,-12V0M730,-12V0M749,-12V0M768,-24V0M787,-12V0M806,-12V0M826,-12V0M845,-12V0M864,-24V0M883,-12V0M902,-12V0M922,-12V0M941,-12V0M960,-24V0" style="stroke: black; stroke-width: 1;"></path>
     <g font-family="Arial" font-size="28" space="preserve" fill="black" text-anchor="middle">
      <text dy=".8em" transform="translate(0,1)">
       0
      </text>
      <text dy=".8em" transform="translate(96,1)">
       0.5
      </text>
      <text dy=".8em" transform="translate(192,1)">
       1
      </text>
      <text dy=".8em" transform="translate(288,1)">
       1.5
      </text>
      <text dy=".8em" transform="translate(384,1)">
       2
      </text>
      <text dy=".8em" transform="translate(480,1)">
       2.5
      </text>
      <text dy=".8em" transform="translate(576,1)">
       3
      </text>
      <text dy=".8em" transform="translate(672,1)">
       3.5
      </text>
      <text dy=".8em" transform="translate(768,1)">
       4
      </text>
      <text dy=".8em" transform="translate(864,1)">
       4.5
      </text>
      <text dy=".8em" transform="translate(960,1)">
       5
      </text>
     </g>
    </g>
    <g>
     <path d="M0,0v640M18,638H0M18,624H0M18,611H0M18,597H0M36,584H0M18,570H0M18,557H0M18,543H0M18,530H0M36,516H0M18,503H0M18,489H0M18,476H0M18,462H0M36,449H0M18,435H0M18,421H0M18,408H0M18,394H0M36,381H0M18,367H0M18,354H0M18,340H0M18,327H0M36,313H0M18,300H0M18,286H0M18,273H0M18,259H0M36,246H0M18,232H0M18,219H0M18,205H0M18,191H0M36,178H0M18,164H0M18,151H0M18,137H0M18,124H0M36,110H0M18,97H0M18,83H0M18,70H0M18,56H0M36,43H0M18,29H0M18,16H0M18,2H0" style="stroke: black; stroke-width: 1;"></path>
     <g font-family="Arial" font-size="28" space="preserve" fill="black" text-anchor="end">
      <text dy=".4em" transform="translate(-4,584)">
       5
      </text>
      <text dy=".4em" transform="translate(-4,516)">
       10
      </text>
      <text dy=".4em" transform="translate(-4,449)">
       15
      </text>
      <text dy=".4em" transform="translate(-4,381)">
       20
      </text>
      <text dy=".4em" transform="translate(-4,313)">
       25
      </text>
      <text dy=".4em" transform="translate(-4,246)">
       30
      </text>
      <text dy=".4em" transform="translate(-4,178)">
       35
      </text>
      <text dy=".4em" transform="translate(-4,110)">
       40
      </text>
      <text dy=".4em" transform="translate(-4,43)">
       45
      </text>
     </g>
    </g>
   </g>
  </g>
  <g transform="translate(120,4)" font-family="Arial" font-size="40" space="preserve">
   <text fill="black" text-anchor="middle" dy=".8em" transform="translate(480)">
    background + signal
   </text>
  </g>
  <g transform="translate(936,52)" font-family="Arial" font-size="25" space="preserve" fill="black">
   <path d="M0,0H240V128H0Z" style="fill: white; stroke: black; stroke-width: 1;"></path>
   <text text-anchor="middle" dy=".4em" transform="translate(120,16)">
    h
   </text>
   <text text-anchor="start" dy=".4em" transform="translate(12,48)">
    Entries
   </text>
   <text text-anchor="end" dy=".4em" transform="translate(228,48)">
    2000
   </text>
   <text text-anchor="start" dy=".4em" transform="translate(12,80)">
    Mean
   </text>
   <text text-anchor="end" dy=".4em" transform="translate(228,80)">
    2.046
   </text>
   <text text-anchor="start" dy=".4em" transform="translate(12,112)">
    Std Dev
   </text>
   <text text-anchor="end" dy=".4em" transform="translate(228,112)">
    1.288
   </text>
   <path d="M0,32h240" style="stroke: black; stroke-width: 1;"></path>
  </g>
 </g>
</svg>
